teeny/outline/wifi-full.svg

<svg width="15" height="15" viewBox="0 0 15 15" fill="none" xmlns="http://www.w3.org/2000/svg">
<path d="M3.21904 9.31822C4.37368 7.91859 5.91674 7.15689 7.50001 7.15689V6.15689C5.5826 6.15689 3.76836 7.08091 2.44765 8.68186L3.21904 9.31822ZM7.50001 7.15689C9.08328 7.15689 10.6263 7.91859 11.781 9.31822L12.5524 8.68186C11.2317 7.08091 9.41742 6.15689 7.50001 6.15689V7.15689ZM0.885695 6.31819C2.65917 4.16841 5.04156 2.98529 7.5 2.98529V1.98529C4.70742 1.98529 2.05386 3.33073 0.114305 5.68183L0.885695 6.31819ZM7.5 2.98529C9.95844 2.98529 12.3408 4.16841 14.1143 6.31819L14.8857 5.68183C12.9461 3.33073 10.2926 1.98529 7.5 1.98529V2.98529ZM7.5 12C7.22386 12 7 11.7762 7 11.5H6C6 12.3284 6.67157 13 7.5 13V12ZM8 11.5C8 11.7762 7.77614 12 7.5 12V13C8.32843 13 9 12.3284 9 11.5H8ZM7.5 11C7.77614 11 8 11.2239 8 11.5H9C9 10.6716 8.32843 10 7.5 10V11ZM7.5 10C6.67157 10 6 10.6716 6 11.5H7C7 11.2239 7.22386 11 7.5 11V10Z" fill="black"/>
</svg>

<svg viewBox="0 0 15 15" xmlns="http://www.w3.org/2000/svg"><path d="M3.21 9.31c1.15-1.4 2.69-2.17 4.28-2.17v-1c-1.92 0-3.74.92-5.06 2.52l.77.63Zm4.28-2.17c1.58 0 3.12.76 4.28 2.16l.77-.64C11.21 7.05 9.4 6.13 7.48 6.13v1ZM.87 6.3c1.77-2.15 4.15-3.34 6.61-3.34v-1c-2.8 0-5.45 1.34-7.39 3.69l.77.63Zm6.61-3.34c2.45 0 4.84 1.18 6.61 3.33l.77-.64c-1.94-2.36-4.6-3.7-7.39-3.7v1Zm0 9.01c-.28 0-.5-.23-.5-.5h-1c0 .82.67 1.5 1.5 1.5v-1Zm.5-.5c0 .27-.23.5-.5.5v1c.82 0 1.5-.68 1.5-1.5h-1Zm-.5-.5c.27 0 .5.22.5.5h1c0-.83-.68-1.5-1.5-1.5v1Zm0-1c-.83 0-1.5.67-1.5 1.5h1c0-.28.22-.5.5-.5v-1Z"/></svg>
